src/asset/16px/user.svg

<svg width="16" height="16" viewBox="0 0 16 16" fill="none" xmlns="http://www.w3.org/2000/svg">
<path fill-rule="evenodd" clip-rule="evenodd" d="M4.0765 12H11.9235C11.8393 11.5115 11.6944 11.1799 11.5324 10.9479C11.359 10.6997 11.1328 10.5175 10.8344 10.3785C10.185 10.0761 9.25819 10 8.00001 10C6.74183 10 5.81504 10.0761 5.16559 10.3785C4.86722 10.5175 4.64097 10.6997 4.46765 10.9479C4.30558 11.1799 4.16077 11.5115 4.0765 12ZM4.32119 8.56553C5.42154 8.05304 6.77038 8 8.00001 8C9.22964 8 10.5785 8.05304 11.6788 8.56553C12.2554 8.83404 12.7726 9.23075 13.172 9.80262C13.5676 10.369 13.8132 11.0576 13.9261 11.8629C14.101 13.1111 13.0546 14 12 14H4.00001C2.94546 14 1.89902 13.1111 2.07395 11.8629C2.18681 11.0576 2.4324 10.369 2.82802 9.80262C3.22747 9.23075 3.74466 8.83404 4.32119 8.56553Z" fill="#808080"/>
<path fill-rule="evenodd" clip-rule="evenodd" d="M8.00001 4C7.44773 4 7.00001 4.44772 7.00001 5C7.00001 5.55228 7.44773 6 8.00001 6C8.55229 6 9.00001 5.55228 9.00001 5C9.00001 4.44772 8.55229 4 8.00001 4ZM5.00001 5C5.00001 3.34315 6.34316 2 8.00001 2C9.65686 2 11 3.34315 11 5C11 6.65685 9.65686 8 8.00001 8C6.34316 8 5.00001 6.65685 5.00001 5Z" fill="#808080"/>
</svg>

<svg width="16" height="16" fill="none" xmlns="http://www.w3.org/2000/svg"><path fill-rule="evenodd" clip-rule="evenodd" d="M4.077 12h7.847c-.085-.489-.23-.82-.392-1.052-.173-.248-.4-.43-.698-.57C10.185 10.077 9.258 10 8 10s-2.185.076-2.834.379a1.682 1.682 0 00-.698.569c-.162.232-.307.563-.391 1.052zm.244-3.434C5.421 8.053 6.771 8 8 8c1.23 0 2.579.053 3.679.566a3.679 3.679 0 011.493 1.237c.396.566.641 1.255.754 2.06C14.101 13.11 13.055 14 12 14H4c-1.055 0-2.101-.889-1.926-2.137.113-.805.358-1.494.754-2.06a3.68 3.68 0 011.493-1.237z" fill="gray"/><path fill-rule="evenodd" clip-rule="evenodd" d="M8 4a1 1 0 100 2 1 1 0 000-2zM5 5a3 3 0 116 0 3 3 0 01-6 0z" fill="gray"/></svg>
